<?xml version="1.0" encoding="UTF-8"?>
<map version="1.10" tiledversion="1.11.2" orientation="orthogonal" renderorder="right-down" width="20" height="15" tilewidth="32" tileheight="32" infinite="0" nextlayerid="3" nextobjectid="6"><tileset firstgid="1" source="willowbrook.tsx"/><layer id="1" name="Terrain" width="20" height="15"><data encoding="csv">3,3,3,3,3,3,3,3,3,3,3,3,3,3,3,3,3,3,3,3,3,1,1,1,1,1,1,1,1,2,2,1,1,1,1,1,1,1,1,3,3,1,1,1,1,1,1,1,1,2,2,1,1,1,1,1,1,1,1,3,3,1,1,3,3,1,1,1,1,2,2,1,1,1,1,1,1,1,1,3,3,1,1,3,3,1,1,1,1,2,2,1,1,1,1,1,1,1,1,3,3,1,1,1,1,1,1,1,1,2,2,1,1,1,1,1,1,1,1,3,3,1,1,1,1,1,1,1,1,2,2,1,1,1,1,1,1,1,1,3,3,1,1,1,1,1,1,1,1,2,2,1,1,1,1,1,1,1,1,3,3,1,1,1,1,1,1,1,1,2,2,1,1,1,1,1,1,1,1,3,3,1,1,1,1,1,1,1,1,2,2,1,1,1,1,1,1,1,1,3,3,1,1,1,1,1,1,1,1,2,2,1,1,1,1,1,1,1,1,3,3,1,1,1,1,1,1,1,1,2,2,1,1,1,1,1,1,1,1,3,3,1,1,1,1,1,1,1,1,2,2,1,1,1,1,1,1,1,1,3,3,1,1,1,1,1,1,1,1,2,2,1,1,1,1,1,1,1,1,3,3,3,3,3,3,3,3,3,3,3,3,3,3,3,3,3,3,3,3,3</data></layer><objectgroup id="2" name="Content"><object id="1" name="slime-001" type="monster" x="280" y="224" ><properties><property name="spawnGroup"  value="starter-slimes"/><property name="monsterId"  value="slime"/></properties><point/></object>
<object id="2" name="slime-002" type="monster" x="416" y="304" ><properties><property name="spawnGroup"  value="starter-slimes"/><property name="monsterId"  value="slime"/></properties><point/></object>
<object id="3" name="slime-003" type="monster" x="160" y="304" ><properties><property name="spawnGroup"  value="starter-slimes"/><property name="monsterId"  value="slime"/></properties><point/></object>
<object id="4" name="slime-004" type="monster" x="432" y="160" ><properties><property name="spawnGroup"  value="starter-slimes"/><property name="monsterId"  value="slime"/></properties><point/></object>
<object id="5" name="meadow-north" type="portal" x="288" y="16" width="64" height="32"><properties><property name="targetMap"  value="village"/><property name="targetX" type="int" value="320"/><property name="targetY" type="int" value="400"/></properties></object></objectgroup></map>